X:1
T:Jesu, the very thought of thee - Bairstow
T:James Gibb editions
T:#
%%score 1 2 3 4
L:1/8
Q:1/4=88
M:4/4
K:Eb
V:1 treble nm="Soprano" snm="S"
V:2 treble nm="Alto" snm="A"
V:3 treble-8 nm="Tenor" snm="T"
V:4 bass nm="Bass" snm="B"
V:1
"^Jesu, the very thought of thee"!p!"^Edward Caswall\n(1814-78)"!<(!!>(! B8 | %1
w: Je-|
 G4!<)!!>)!!>(!!<(! e4- | e4!>)!!<)! c2 c2 | B2 (AG)!pp!"^ten." e2 G2 | %4
w: su, Je\-|* su, the|ve- ry * thought of|
 F4 z2"^E. C. Bairstow\n(1874-1946)" G2 | A2 (GF)"^ten."!pp! f2 A2 | G6 _d2 | _d4 A2 c2 | %8
w: Thee, the|ve- ry * thought of|Thee With|sweet- ness, with|
!<(! B8-!<)! | B2 E2!<(! (F2 G2!<)! | A6)!>(! G2 | F2!>)!!mf!!<(! F2 G2 (FE)!<)! | (!>!c4 B4) | %13
w: sweet\-|* ness fills *|* my|breast; But sweet- er *|far, *|
 z2!f! B2!<(! c2 (BA)!<)! ||[M:3/2] x12 |[M:3/2] (!>!f4 e6) d2 ||[M:4/4]!ff! g6 f2 | e4!f! e4 | %18
w: but sweet- er *||far * Thy|face to|see, Thy|
!>(! f6 e2!>)! | c6!mf! c2 |[M:4/4] B2 (AG) B2 A2 | (G8- | G8 |!>(! G4 F2)!>)! z2 | z4 z2!p! G2 | %25
w: face to|see, And|in Thy * pre- sence|rest,|||and|
 A4 B4 | c4 (d2 e2) | F6!pp! E2 | F8 | G8 | A8 |!>(! (B4"^," c4)!>)! |!ppp! !fermata!E8 |] %33
w: in Thy|pre- sence *|rest, and|in|Thy|pre-|sence *|rest.|
V:2
!p!!<(! (B2 A!<)!!>(!G F4)!>)! | E2 E2 F2 G2 | A2 B2 c2 F2 | F2 C2!pp!"^ten." B,2 B,2 | _D4 F4 | %5
w: Je\- * * *|su, the ve- ry|thought of Thee, the|ve- ry thought of|Thee, the|
 F2 C2"^ten."!pp! A2 F2 | (F4 =E2) E2 | (F2 G2) A2 A2 |!<(! G2 (FE) G2 F2!<)! | E2 z2!<(! (_D4- | %10
w: ve- ry thought of|Thee * With|sweet\- * ness, with|sweet- ness * fills my|breast, fills|
 D2!<)!!>(! C2 =D2) E2!>)! | D4 z4 | z2!mf! E2!<(! F2 (E"^\"D)!<)! | (!>!B4 G3)!f! A || %14
w: * * * my|breast;|But sweet- er *|far, * but|
[M:3/2] x12 |[M:3/2]!<(! c6 B2 c2!<)! B2 ||[M:4/4]!ff! A4 c4 | (c2 B2 A2)!f! G2 | %18
w: |sweet- er far Thy|face to|see * * Thy|
!>(! (F2 G2 A2) B2!>)! | (B2 A2)!mf! (C2 =D2) |[M:4/4] E2 (B,C) (DE) F2 | D2 z2 z2!mp! F2 | %22
w: face * * to|see, * And *|in Thy * pre\- * sence|rest, and|
"^dim." E2 (DB,) E2 _D2 |!>(! C6 z2!>)! | z4 z2!p! C2 | (C2 =D4) E2 | (G2 F4) E2 | (E2 D4)!pp! C2 | %28
w: in Thy * pre- sence|rest,|and|in * Thy|pre\- * sence|rest, * and|
 (C4 _D4) | E8 | E8 |!>(! (=D4"^," C4)!>)! |!ppp! !fermata!B,8 |] %33
w: in *|Thy|pre-|sence *|rest.|
V:3
 z2!p!!<(!!<(! e4 d2-!<)!!<)! | d2 c2 B2 _d2 | e2 G2 A2 c2 | =d2 e2!pp!"^ten." B2 G2 | A4 _d4 | %5
w: Je- su,|* the ve- ry|thought of Thee, the|ve- ry thought of|Thee, of|
 c4 z2 _d2 | _d2 B2 c2 d2 | (A2 B2 c2) =d2 |!<(! e2 B2 c2 d2!<)! | e2 z2!<(! (_d4 | %10
w: Thee With|sweet- ness fills my|breast, * * with|sweet- ness fills my|breast, fills|
 f2!<)!!>(! e2 A2) B2!>)! | B4 z2!mf! G2 | A2!<(! (GF) d2!<)! B2 | !>!e8- ||[M:3/2] x12 | %15
w: * * * my|breast; But|sweet- er * far, but|sweet-||
[M:3/2][K:treble-8] e2 d2!f! e2!<(! (dc) g2 f2!<)! ||[M:4/4]!ff! e4 a4 | g4!f! c4 |!>(! c6 B2!>)! | %19
w: * er, sweet- er * far Thy|face to|see, Thy|face to|
 e6!mf! A2 |[M:4/4][K:treble-8] G2 e2 d2 c2 |"^dim." =B2 (cd) =A2 B2 | %22
w: see, And|in Thy pre- sence,|in Thy * pre- sence|
"^dim." c2 G2 !courtesy!_B2 E2 |!>(! E6 z2!>)! | z4 z2!p! E2 | (E2 F4) G2 | c4 (A2 G2) | %27
w: rest, Thy pre- sence|rest,|and|in * Thy|pre- sence *|
 c4!pp! B4 | A8 | B8 | A8 |!>(! (E4"^," F4)!>)! |!ppp! !fermata!G8 |] %33
w: rest, and|in|Thy|pre-|sence *|rest.|
V:4
 z8 |!p!!<(!!>(! E,8 | C,4!<)!!>)!!>(!!<(! A,4- | A,4!>)!!<)!!pp!"^ten." G,2 E,2 | %4
w: |Je-|su, Je\-|* su, the|
 _D,2 (C,B,,) !tenuto!G,2 B,,2 | A,,4 z2 B,,2 | B,,2 _D,2 C,2 B,,2 | F,8 |!<(! (G,4 A,2) B,2!<)! | %9
w: ve- ry * thought of|Thee With|sweet- ness fills my|breast,|fills * my|
 C2 z2!<(! (B,4 | A,4!<)!!>(! F,2) E,2!>)! | B,,4 z4 | z4 z2!mf! F,2 |!<(! G,2 (F,E,)!<)! !>!C4 || %14
w: breast, fills|* * my|breast;|But|sweet.- er * far,|
[M:3/2] x12 |[M:3/2]!f! A,6!<(! G,2 A,2 B,2!<)! ||[M:4/4]!ff! C4 D4 | E4 z2!f! C,2 | %18
w: |sweet- er far Thy|face to|see, Thy|
!>(! (_D,2 E,2 F,2) G,2!>)! | A,6 z2 |[M:4/4] z2!mf! G,2 F,2 (E,D,) |"^dim." G,2 F,2 E,2 D,2 | %22
w: face * * to|see,|And in Thy *|pre- sence rest, and|
"^dim." C,2 E,2 _D,2 (C,B,,) |!>(! A,,6 z2!>)! | z4 z2!p! G,,2 | F,,4 (A,,2 G,,2) | %26
w: in Thy pre- sence *|rest,|and|in Thy *|
 A,,4 (B,,2 C,2) | A,,4!pp! G,,4 | (E,4 _D,4- | D,4) E,4 | (_D,4 C,4) |!>(! (B,,4"^," A,,4)!>)! | %32
w: pre- sence *|rest, and|in *|* Thy|pre\- *|sence *|
!ppp! !fermata![E,,E,]8 |] %33
w: rest.|

